svg/church-center/globe.svg

<svg width="16" height="16" viewBox="0 0 16 16" fill="none" xmlns="http://www.w3.org/2000/svg">
<path d="M8 0C6.41775 0 4.87103 0.469192 3.55544 1.34824C2.23985 2.22729 1.21447 3.47672 0.608967 4.93853C0.00346625 6.40034 -0.15496 8.00887 0.153721 9.56072C0.462403 11.1126 1.22433 12.538 2.34315 13.6569C3.46197 14.7757 4.88743 15.5376 6.43928 15.8463C7.99113 16.155 9.59966 15.9965 11.0615 15.391C12.5233 14.7855 13.7727 13.7602 14.6518 12.4446C15.5308 11.129 16 9.58225 16 8C16 5.87827 15.1571 3.84344 13.6569 2.34315C12.1566 0.842855 10.1217 0 8 0V0ZM13.743 5.368H11.851C11.7009 4.41272 11.4304 3.4803 11.046 2.593C11.02 2.536 10.994 2.479 10.967 2.423C12.1892 3.07509 13.1642 4.10946 13.743 5.368V5.368ZM6.49 3.284C7.049 2.042 7.648 1.684 8 1.684C8.352 1.684 8.951 2.042 9.51 3.284C9.79931 3.95218 10.0107 4.65145 10.14 5.368H5.86C5.98931 4.65145 6.2007 3.95218 6.49 3.284V3.284ZM1.819 9.305C1.7292 8.87581 1.68396 8.43849 1.684 8C1.68378 7.683 1.70751 7.36643 1.755 7.053H3.964C3.946 7.36433 3.937 7.68 3.937 8C3.937 8.443 3.954 8.879 3.988 9.3L1.819 9.305ZM2.435 10.99H4.214C4.36809 11.8212 4.61636 12.632 4.954 13.407C4.98 13.464 5.006 13.521 5.033 13.577C3.93162 12.9887 3.028 12.0889 2.435 10.99V10.99ZM4.954 2.59C4.57129 3.47753 4.30249 4.40994 4.154 5.365H2.257C2.83643 4.1073 3.8118 3.07397 5.034 2.423C5.006 2.479 4.98 2.536 4.954 2.593V2.59ZM9.51 12.716C8.951 13.958 8.352 14.316 8 14.316C7.648 14.316 7.049 13.958 6.49 12.716C6.24749 12.1607 6.06123 11.5825 5.934 10.99H10.066C9.93878 11.5825 9.75252 12.1607 9.51 12.716V12.716ZM10.323 9.305H5.678C5.641 8.885 5.621 8.449 5.621 8.005C5.621 7.68167 5.631 7.366 5.651 7.058H10.351C10.371 7.366 10.381 7.68167 10.381 8.005C10.379 8.449 10.359 8.885 10.323 9.305ZM10.967 13.577C10.994 13.521 11.02 13.464 11.046 13.407C11.3841 12.6322 11.6324 11.8213 11.786 10.99H13.565C12.972 12.0889 12.0684 12.9887 10.967 13.577ZM12.013 9.305C12.046 8.879 12.063 8.443 12.063 8.005C12.063 7.685 12.0543 7.36933 12.037 7.058H14.245C14.2922 7.36978 14.316 7.68466 14.316 8C14.3157 8.43682 14.2705 8.87244 14.181 9.3L12.013 9.305Z" fill="black"/>
</svg>

<svg id="Layer_1" data-name="Layer 1" xmlns="http://www.w3.org/2000/svg" viewBox="0 0 16 16"><title>globe</title><path d="M8,0a8,8,0,1,0,8,8A8,8,0,0,0,8,0Zm5.743,5.368H11.851a11.451,11.451,0,0,0-.805-2.775c-.026-.057-.052-.114-.079-.17A6.341,6.341,0,0,1,13.743,5.368ZM6.49,3.284c.559-1.242,1.158-1.6,1.51-1.6s.951.358,1.51,1.6a9.484,9.484,0,0,1,.63,2.084H5.86A9.484,9.484,0,0,1,6.49,3.284ZM1.819,9.305A6.369,6.369,0,0,1,1.684,8a6.292,6.292,0,0,1,.071-.947H3.964Q3.937,7.52,3.937,8c0,.443.017.879.051,1.3Zm.616,1.685H4.214a11.131,11.131,0,0,0,.74,2.417c.026.057.052.114.079.17A6.354,6.354,0,0,1,2.435,10.99Zm2.519-8.4a11.451,11.451,0,0,0-.8,2.775H2.257A6.338,6.338,0,0,1,5.034,2.423C5.006,2.479,4.98,2.536,4.954,2.593ZM9.51,12.716c-.559,1.242-1.158,1.6-1.51,1.6s-.951-.358-1.51-1.6a9.072,9.072,0,0,1-.556-1.726h4.132A9.072,9.072,0,0,1,9.51,12.716Zm.813-3.411H5.678c-.037-.42-.057-.856-.057-1.3q0-.485.03-.947h4.7q.03.462.03.947C10.379,8.449,10.359,8.885,10.323,9.305Zm.644,4.272c.027-.056.053-.113.079-.17a11.076,11.076,0,0,0,.74-2.417h1.779A6.354,6.354,0,0,1,10.967,13.577Zm1.046-4.272c.033-.426.05-.862.05-1.3q0-.48-.026-.947h2.208A6.292,6.292,0,0,1,14.316,8a6.369,6.369,0,0,1-.135,1.3Z"/></svg>
